X: 30271
T: SARAGOSSA WALTZ
C:
%R: waltz
B: Elias Howe "The Musician's Companion" Part 3 1844 p.27 #1
S: http://imslp.org/wiki/The_Musician's_Companion_(Howe,_Elias)
S: https://archive.org/stream/firstthirdpartof03howe/#page/66/mode/1up
Z: 2016 John Chambers <jc:trillian.mit.edu>
M: 3/8
L: 1/16
K: G
% - - - - - - - - - - - - - - - - - - - - - - - - -
D2 |\
G4G2 | B4B2 | A2G2A2 | G6 |\
B4B2 | d4d2 | {d}[c2A2][B2G2][c2A2] | [B4G4] :|\
D2 |\
G2B2d2 | g2d2B2 | c2d2e2 | A4G2 |\
D2G2B2 | d2c2A2 | B2BcAB | G4 |]
|: G2 |\
BGDGBG | dBGBdB | AFDFAF | gdBdgd |\
BGDGBG | dBGBdB | AFDFAF | G4 :\
% - - - - - - - - - - - - - - - - - - - - - - - - -
